X: 36299
T: Seamus Martin's
R: reel
M: 4/4
K: Amajor
CB,|:(A,{C}A,{G,}A,)(B, CA,)CE|D/E/(D {G}D)F EAA(B|
{d}cA)AB cde(d|cB)Ac B/c/(B A)F|
EFE(C A,B,)CE|D/E/(D {G}D)(F EA)AB|
({d}c)Ac(d eA)c(e|1 {a}fe)dB cAAB,:|2 {a}fedB cAAB||
|:({d}c)AAB ({d}c)Ace|d/e/(d {e}d)f e(a{b}ag)|
afe(c AB)AF|D/E/(D {G}D)E FAGF|
EFE(C A,B,)CE|D/E/(D {G}D)(F EA)AB|
({d}c)Ac(d eA)c(e|1 {a}fe)dB cAAB:|2 {a}fedB cAAB||

